X:85
M:2/4
L:1/8
K:D
d2 c2 | BA FA | dB cA | B2 B :| 
d2 de | fa fe | dB cA | B2 B :|| 

